X:123
T:Baltimore Salute, The
O:ireland
C:Josie McDermott
R:reel
D:Deanta: Ready for the Storm
Z:id:hn-reel-798
M:C|
K:G
GA|B2ge dBGA|B2GB AGEG|DGGF GABd|egdB ABGA|
B2ge dBGA|B2GB AGEG|DGGF G2Bd|egdB G2:|
|:GA|BG~G2 gG~G2|gGeG dBGA|BGGB d3g|eaag a2ga|
b2ab agef|g2eg dGBd|G2EG Ddge|dBAB G2:|
